images/icons/home.svg

<?xml version="1.0" encoding="UTF-8"?>
<!DOCTYPE svg PUBLIC "-//W3C//DTD SVG 1.1//EN" "http://www.w3.org/Graphics/SVG/1.1/DTD/svg11.dtd">
<!-- Creator: CorelDRAW 2018 (64-Bit) -->
<svg xmlns="http://www.w3.org/2000/svg" xml:space="preserve" width="1.7083mm" height="1.5709mm" version="1.1" style="shape-rendering:geometricPrecision; text-rendering:geometricPrecision; image-rendering:optimizeQuality; fill-rule:evenodd; clip-rule:evenodd"
viewBox="0 0 4.45 4.09"
 xmlns:xlink="http://www.w3.org/1999/xlink">
 <defs>
  <style type="text/css">
   <![CDATA[
    .fil0 {fill:#CD0017;fill-rule:nonzero}
   ]]>
  </style>
 </defs>
 <g id="Layer_x0020_1">
  <metadata id="CorelCorpID_0Corel-Layer"/>
  <g id="_2074190912">
   <path class="fil0" d="M4.42 2.09l-2.18 -2.07c-0.03,-0.03 -0.08,-0.03 -0.11,0l-2.11 2.07c-0.03,0.03 -0.03,0.08 -0,0.11 0.03,0.03 0.08,0.03 0.11,0l2.05 -2.01 2.12 2.01c0.02,0.01 0.04,0.02 0.06,0.02 0.02,0 0.04,-0.01 0.06,-0.03 0.03,-0.03 0.03,-0.08 -0,-0.11z"/>
   <path class="fil0" d="M3.7 3.93l-0.92 0 0 -1.31c0,-0.04 -0.04,-0.08 -0.08,-0.08l-0.98 0c-0.04,0 -0.08,0.04 -0.08,0.08l0 1.31 -0.92 0 0 -1.95 -0.16 0 0 2.03c0,0.04 0.04,0.08 0.08,0.08l1.08 0c0.04,0 0.08,-0.04 0.08,-0.08l0 -1.31 0.82 0 0 1.31c0,0.04 0.04,0.08 0.08,0.08l1.08 0c0.04,0 0.08,-0.04 0.08,-0.08l0 -2.03 -0.16 0 0 1.95z"/>
   <path class="fil0" d="M0.9 0.27l0.35 0 0 0.39 0.16 -0.16 0 -0.31c0,-0.04 -0.04,-0.08 -0.08,-0.08l-0.51 0c-0.04,0 -0.08,0.04 -0.08,0.08l0 0.98 0.16 -0.16 0 -0.74z"/>
  </g>
 </g>
</svg>

<svg xmlns="http://www.w3.org/2000/svg" width="6.457" height="5.937" viewBox="0 0 4.45 4.09" shape-rendering="geometricPrecision" text-rendering="geometricPrecision" image-rendering="optimizeQuality" fill-rule="evenodd" clip-rule="evenodd"><defs><style>.fil0{fill:#cd0017;fill-rule:nonzero}</style></defs><g id="Layer_x0020_1"><g id="_2074190912"><path class="fil0" d="M4.42 2.09L2.24.02a.078.078 0 00-.11 0L.02 2.09c-.03.03-.03.08 0 .11s.08.03.11 0L2.18.19 4.3 2.2c.02.01.04.02.06.02.02 0 .04-.01.06-.03.03-.03.03-.08 0-.11z"/><path class="fil0" d="M3.7 3.93h-.92V2.62c0-.04-.04-.08-.08-.08h-.98c-.04 0-.08.04-.08.08v1.31H.72V1.98H.56v2.03c0 .04.04.08.08.08h1.08c.04 0 .08-.04.08-.08V2.7h.82v1.31c0 .04.04.08.08.08h1.08c.04 0 .08-.04.08-.08V1.98H3.7v1.95zM.9.27h.35v.39L1.41.5V.19c0-.04-.04-.08-.08-.08H.82C.78.11.74.15.74.19v.98l.16-.16V.27z"/></g></g></svg>
